symbolic/22x22/actions/kstars_cbound.svg

<svg xmlns="http://www.w3.org/2000/svg" width="22" height="22" viewBox="0 0 22 22">
 <defs>
  <style id="current-color-scheme" type="text/css">
   .ColorScheme-Text { color:#323a41; } .ColorScheme-Highlight { color:#4285f4; } .ColorScheme-NeutralText { color:#ff9800; } .ColorScheme-PositiveText { color:#4caf50; } .ColorScheme-NegativeText { color:#f44336; }
  </style>
 </defs>
 <path style="fill:currentColor" class="ColorScheme-Text" d="M 5 -0.21289062 L 5 0 A 5 5 0 0 1 4.9160156 0.88476562 A 5 5 0 0 1 4.8046875 1.3691406 A 5 5 0 0 1 4.6425781 1.84375 A 5 5 0 0 1 2.0449219 4.5507812 A 5 5 0 0 1 1.5898438 4.7304688 A 5 5 0 0 1 1.5800781 4.7304688 A 5 5 0 0 1 1.5683594 4.7304688 A 5 5 0 0 1 1.1132812 4.8574219 A 5 5 0 0 1 1.0976562 4.8574219 A 5 5 0 0 1 0 4.9570312 L 0 5.9570312 A 6 6 0 0 0 1.4140625 5.78125 L 2.3652344 8.6328125 C 1.5994344 8.7328125 0.804 8.9335938 0 8.9335938 L 0 9.5957031 C 1.6837 9.5958031 3.3324812 9.1814031 4.8007812 8.4082031 L 5.4707031 9.4609375 L 6.0078125 10.302734 A 12 12 0 0 0 6.8515625 9.7675781 L 6.8476562 9.7578125 C 8.9215563 8.3112125 10.541 6.2186188 11.375 3.6992188 L 13.529297 4.3144531 L 14.269531 4.5625 C 14.744351 3.0872 14.99749 1.4819344 15 -0.072265625 L 14 -0.072265625 C 13.9963 1.0441344 13.845449 2.1900094 13.574219 3.2871094 L 5.8808594 1.0878906 A 6 6 0 0 0 6 -0.21289062 L 5 -0.21289062 z M 5.609375 2.1230469 L 10.417969 3.4980469 C 9.6534387 5.7774469 8.1874 7.6733344 6.3125 8.9902344 L 5.6640625 7.9707031 L 5.2402344 7.3027344 A 9 9 0 0 1 4.5410156 7.7539062 C 4.1463656 7.9860062 3.7334069 8.1784562 3.3105469 8.3476562 L 2.3652344 5.5117188 A 6 6 0 0 0 5.609375 2.1230469 z M 9.1230469 7.7890625 A 12 12 0 0 1 8.4414062 8.5214844 L 9.8925781 9.8691406 C 7.2785781 12.492141 3.7303 13.9969 0 14 L 0 15 C 4.0072 14.99 7.8163875 13.368416 10.617188 10.541016 L 12.826172 12.59375 A 18 18 0 0 1 8.1894531 16 L 10.208984 16 A 19 19 0 0 0 13.554688 13.271484 L 13.564453 13.28125 A 19 19 0 0 0 14.246094 12.548828 L 14.240234 12.548828 A 19 19 0 0 0 16 10.25 L 16 8.2109375 A 18 18 0 0 1 13.492188 11.851562 L 11.3125 9.8261719 L 10.585938 9.1523438 L 9.1230469 7.7929688 L 9.1230469 7.7890625 z" transform="translate(3 3)"/>
</svg>

<svg xmlns="http://www.w3.org/2000/svg" width="22" height="22"><defs><style id="current-color-scheme" type="text/css"></style></defs><path style="fill:currentColor;color:#323a41" d="M5-.213V0a5 5 0 0 1-.084.885 5 5 0 0 1-.111.484 5 5 0 0 1-.162.475A5 5 0 0 1 2.045 4.55a5 5 0 0 1-.455.18 5 5 0 0 1-.01 0 5 5 0 0 1-.012 0 5 5 0 0 1-.455.126 5 5 0 0 1-.015 0 5 5 0 0 1-1.098.1v1a6 6 0 0 0 1.414-.176l.951 2.852c-.766.1-1.561.3-2.365.3v.663a10.31 10.31 0 0 0 4.8-1.188l.67 1.053.538.842a12 12 0 0 0 .844-.535l-.004-.01a11.965 11.965 0 0 0 4.527-6.059l2.154.615.74.248c.475-1.475.728-3.08.731-4.634h-1a14.321 14.321 0 0 1-.426 3.36l-7.693-2.2A6 6 0 0 0 6-.212H5zm.61 2.336 4.808 1.375A10.967 10.967 0 0 1 6.313 8.99l-.649-1.02-.424-.667a9 9 0 0 1-.699.45 9.042 9.042 0 0 1-1.23.595l-.946-2.836A6 6 0 0 0 5.61 2.123zm3.513 5.666a12 12 0 0 1-.682.732L9.893 9.87A13.986 13.986 0 0 1 0 14v1a14.997 14.997 0 0 0 10.617-4.459l2.21 2.053A18 18 0 0 1 8.188 16h2.02a19 19 0 0 0 3.346-2.729l.01.01a19 19 0 0 0 .681-.732h-.006A19 19 0 0 0 16 10.25V8.21a18 18 0 0 1-2.508 3.642l-2.18-2.026-.726-.674-1.463-1.359v-.004z" transform="translate(3 3)"/></svg>
